X: 2133
T: Atlantic Wave, The
R: reel
M: 4/4
K: Gmajor
|:(3DEF||G2 (3BAG dGBd|cBcd efge|(3d^cd BG dGBG|(3FED AD BDAF|
GA (3BAG dGBd|cBcd efge|dgfg (3d^c=c AF|GBAF G2:|
|:Bd|(3gbg fg ed^ce|dfab afda|bagf gdBG|(3FED AD BDAF|
GA (3BAG dGBd|cBcd efge|d~g3 dcAF|GBAF G2:|

